!!!COA:	des Prez, Josquin
!!!CDT:	~1450-1521/08/27
!!!OPR:	Missa Allez regretz II
!!!ONM:	4
!!!OTL:	Sanctus
!!!AGN:	Mass; Sanctus
!!!SCT:	NJE 7.2
!!!SCA:	New Josquin Edition 7.2
!!!voices:	4
!!!COM:	Josquin? Compere
!!!OTL:	Jos0702d-Missa_Allez_regretz_II-Sanctus
**kern	**kern	**kern	**kern
*part4	*part3	*part2	*part1
*staff4	*staff3	*staff2	*staff1
*Ivox	*Ivox	*Ivox	*Ivox
*I"Bassus	*I"Tenor	*I"Contratenor	*I"Superius
*I'B	*I'T	*I'Ct	*I'S
*>[A,B,C,D,E]	*>[A,B,C,D,E]	*>[A,B,C,D,E]	*>[A,B,C,D,E]
*>A	*>A	*>A	*>A
*clefF4	*clefGv2	*clefGv2	*clefG2
*k[b-]	*k[b-]	*k[b-]	*k[b-]
*d:	*d:	*d:	*d:
*M2/1	*M2/1	*M2/1	*M2/1
*met(C|)	*met(C|)	*met(C|)	*met(C|)
=1	=1	=1	=1
!!section: Sanctus
1.C	0c	2.c	0r
.	.	4d	.
.	.	2e	.
2D	.	2f	.
=2	=2	=2	=2
1E	1c	1g	0r
1F	1A	2.c	.
.	.	4d	.
=3	=3	=3	=3
0G	2G	2e	0r
.	1B-	1d	.
.	4A	4c	.
.	4G	4B-	.
=4	=4	=4	=4
*	*M2/1	*	*
*	*met(C)	*	*
*	*rscale:1/2	*	*
0A	0F	2.A	0cc
.	.	4B-	.
.	.	2c	.
.	.	2F	.
=5	=5-	=5	=5
1r	0F	2.A	1cc
.	.	4B-	.
1A	.	2c	1a
.	.	[2d	.
=6	=6	=6	=6
*	*M2/1	*	*
*	*met(C|)	*	*
*	*rscale:1	*	*
1B-	1G	4d]	2g
.	.	4c	.
.	.	2d	1b-
1G	1B-	2G	.
.	.	[2d	4a
.	.	.	4g
=7	=7	=7	=7
0D	1A	4d]	1f
.	.	4c	.
.	.	2d	.
.	1A	2A	1f
.	.	[2d	.
=8	=8	=8	=8
1r	1.G	4d]	1g
.	.	4c	.
.	.	2d	.
1G	.	4B-	1b-
.	.	4c	.
.	4A	4d	.
.	4B-	4e	.
=9	=9	=9	=9
*	*M2/1	*	*
*	*met(C)	*	*
*	*rscale:1/2	*	*
0F	0c	1.f	1a
.	.	.	1a
.	.	2e	.
=10	=10	=10	=10
*	*M2/1	*	*
*	*met(C|)	*	*
*	*rscale:1	*	*
0G	2B-	1.d	1.g
.	1B-	.	.
.	4A	4c	4a
.	4G	4B-	4b-
=11	=11	=11	=11
*	*M2/1	*	*
*	*met(O)	*	*
*	*rscale:1/2	*	*
1r	1F	1A	1cc
1C	1E	1G	2r
.	.	.	[2cc
=12	=12-	=12	=12
1D	1F	1d	2cc]
.	.	.	2b-
1F	1A	[1c	2a
.	.	.	4g
.	.	.	4f
=13	=13-	=13	=13
0C	0G	0c]	2e
.	.	.	1f
.	.	.	2e
=14	=14	=14	=14
*	*M2/1	*	*
*	*met(C)	*	*
*	*rscale:1/2	*	*
0FF	[0F	1A	[0f
.	.	2r	.
.	.	2F	.
=15	=15-	=15	=15
1r	0F_	1c	0f]
1FF	.	1c	.
=16	=16	=16	=16
0BB-	0F_	1d	1r
.	.	1d	1f
=17	=17-	=17	=17
1AA	0F]	1.c	1cc
1A	.	.	1cc
.	.	4B-	.
.	.	4A	.
=18	=18	=18	=18
*	*M2/1	*	*
*	*met(C|)	*	*
*	*rscale:1	*	*
1G	1r	1B-	1dd
2.D	1F	2r	1dd
.	.	[2A	.
4E	.	.	.
=19	=19	=19	=19
2F	1c	2A]	1.cc
2C	.	2G	.
1F	1c	1A	.
.	.	.	4b-
.	.	.	4a
=20	=20	=20	=20
*	*M2/1	*	*
*	*met(C)	*	*
*	*rscale:1/2	*	*
1r	0d	1G	2b-
.	.	.	4a
.	.	.	4g
2.B-	.	1r	2f
.	.	.	[2g
4A	.	.	.
=21	=21-	=21	=21
2G	0d	1r	2g]
2F	.	.	1a
1B-	.	1d	.
.	.	.	2g
=22	=22	=22	=22
*	*M2/1	*	*
*	*met(C|)	*	*
*	*rscale:1	*	*
1A	1.c	1.e	0a
2r	.	.	.
[2A	4B-	[2f	.
.	4A	.	.
=23	=23	=23	=23
*	*M2/1	*	*
*	*met(C)	*	*
*	*rscale:1/2	*	*
2A]	1B-	2f]	1r
2G	.	4e	.
.	.	4d	.
2A	1A	1c	2r
[2F	.	.	[2a
=24	=24-	=24	=24
2F]	1F	1r	2a]
4E	.	.	4g
4D	.	.	4f
1C	[1G	2r	1e
.	.	2c	.
=25	=25	=25	=25
1BB-	1G]	1d	1d
!	!LO:N:vis=1	!	!
2AA	[y1A	2c	1r
[2D	.	[2f	.
=26	=26-	=26	=26
4D]	1A]yy	4f]	0r
4E	.	4e	.
4F	.	1d	.
4D	.	.	.
1E	1G	.	.
.	.	2c#Xi	.
=27	=27	=27	=27
0D	[0A	1d	2r
.	.	.	2d
.	.	2r	2.f
.	.	2d	.
.	.	.	4g
=28	=28-	=28	=28
2r	0A_	2.f	2a
2D	.	.	2f
.	.	4g	.
2.F	.	2a	2r
.	.	2f	2d
4G	.	.	.
=29	=29	=29	=29
2A	0A_	2r	2.f
2F	.	2c	.
.	.	.	4g
2r	.	2.f	2a
2D	.	.	2f
.	.	4g	.
=30	=30-	=30	=30
2.F	0A]	2a	2c
.	.	2.f	1cc
4G	.	.	.
2A	.	.	.
.	.	4e	.
2F	.	4d	4b-
.	.	4c	4a
=31	=31	=31	=31
*	*M2/1	*	*
*	*met(O)	*	*
*	*rscale:1/2	*	*
0r	0r	2d	2b-
.	.	2A	1a
.	.	1B-	.
.	.	.	2g
=32	=32-	=32	=32
0r	0A	2A	1a
.	.	2.c	.
.	.	.	2r
.	.	4d	.
.	.	4e	[2a
.	.	4f	.
=33	=33-	=33	=33
0r	0A	2e	2a]
.	.	1d	4g
.	.	.	4f
.	.	.	1e
.	.	2c#Xi	.
=34	=34	=34	=34
*	*M2/1	*	*
*	*met(C.)	*	*
*	*rscale:1/2	*	*
!	!LO:N:vis=1.	!	!
1D	[y0A	1d	2r
.	.	.	2d
1C	.	1r	1e
=35	=35-	=35	=35
!	!	!LO:N:vis=0	!
1D	1A]yy	[y1d	1f
=-	=	=-	=-
*	*M2/1	*	*
*	*met(C|)	*	*
*	*rscale:1	*	*
1GG	1B-	1d]yy	1g
=36	=36	=36	=36
*	*M2/1	*	*
*	*met(3)	*	*
1r	3%2A	1e	0r
.	3G	.	.
1D	3.F	1f	.
.	6E	.	.
.	3D	.	.
=37	=37	=37	=37
*	*M2/1	*	*
*	*met(C|)	*	*
1E	1C	1g	2r
.	.	.	2g
1F	1c	1r	1a
=38	=38	=38	=38
1G	2.B-	1d	1b-
.	4A	.	.
2C	2G	2c	2cc
[2D	[2d	[2A	[2f
=39	=39	=39	=39
4D]	2d]	2A]	4f]
4E	.	.	4g
4F	2.c	2F	4a
4G	.	.	4b-
4A	.	2c	2a
4F	4A	.	.
2G	2B-	2G	[2g
=40	=40	=40	=40
2D	1F	2.A	4g]
.	.	.	4f
2F	.	.	1f
.	.	4B-	.
1C	1G	[1c	.
.	.	.	2e
=41	=41	=41	=41
*	*M2/1	*	*
*	*met(C)	*	*
*	*rscale:1/2	*	*
0FF	0F	1c]	1f
.	.	2r	1c
.	.	[2c	.
=42	=42	=42	=42
*	*M2/1	*	*
*	*met(C|)	*	*
*	*rscale:1	*	*
2.F	2r	2c]	0r
.	1F	1d	.
4E	.	.	.
2D	.	.	.
[2C	[2G	[2e	.
=43	=43	=43	=43
4C]	2G]	2e]	1r
4BB-	.	.	.
2AA	2A	2c	.
2GG	2B-	2d	2r
2FF	[2c	2A	[2f
=44	=44	=44	=44
2AA	2c]	2c	2f]
2GG	2B-	2d	1g
1C	1c	1e	.
.	.	.	2a
=45	=45	=45	=45
*	*M2/1	*	*
*	*met(C)	*	*
*	*rscale:1/2	*	*
0G	0d	2d	2b-
.	.	2.g	1cc
.	.	4f	.
.	.	2d	2bni
=46	=46-	=46	=46
[0Cl	[0cl	2.e	[0ccl
.	.	4d	.
.	.	2c	.
.	.	4B-	.
.	.	4A	.
=47	=47-	=47	=47
0C]	0c]	0Gl	0cc]
!!LO:LB:i:g=z
*	*rscale:1	*	*
=48||	=48||	=48||	=48||
*>B	*>B	*>B	*>B
*clefF4	*clefGv2	*clefGv2	*clefG2
*k[b-]	*k[b-]	*k[b-]	*k[b-]
*M2/1	*M2/1	*M2/1	*M2/1
*met(C|)	*met(C|)	*met(C|)	*met(C|)
!!section: Pleni sunt celi
!!!OMD: Pleni sunt celi
0r	0r	0r	1.cc
.	.	.	4b-
.	.	.	4a
=49	=49	=49	=49
0r	0r	0r	1b-
.	.	.	1b-
=50	=50	=50	=50
0r	0r	1.c	2a
.	.	.	4g
.	.	.	4f
.	.	.	2.e
.	.	4B-	.
.	.	4A	4f
=51	=51	=51	=51
0r	0r	1B-	2g
.	.	.	1a
.	.	1B-	.
.	.	.	2g
=52	=52	=52	=52
1.F	0r	2.A	0a
.	.	4B-	.
.	.	2c	.
4E	.	[2d	.
4D	.	.	.
=53	=53	=53	=53
1E	0r	2d]	0r
.	.	4c#Xi	.
.	.	4Bni	.
1E	.	1c#Xi	.
=54	=54	=54	=54
0D	0r	1d	1r
.	.	2r	1a
.	.	[2f	.
=55	=55	=55	=55
2r	0r	2f]	0a
1F	.	4e	.
.	.	4d	.
.	.	2c	.
4E	.	2d	.
4D	.	.	.
=56	=56	=56	=56
2C	0r	1A	0a
2D	.	.	.
1AA	.	2r	.
.	.	[2c	.
=57	=57	=57	=57
0r	0r	4c]	1g
.	.	4d	.
.	.	4e	.
.	.	4c	.
.	.	2f	2a
.	.	[2e	[2g
=58	=58	=58	=58
0r	0r	2e]	4g]
.	.	.	4f
.	.	1d	4e
.	.	.	4d
.	.	.	1e
.	.	2c#Xi	.
=59	=59	=59	=59
2r	0r	1d	1d
2D	.	.	.
2F	.	1d	1r
2G	.	.	.
=60	=60	=60	=60
2.A	0r	2.c	0r
4G	.	4B-	.
4F	.	4A	.
4E	.	4G	.
2F	.	[2F	.
=61	=61	=61	=61
2A	0r	2F]	1r
2B-	.	1f	.
1G	.	.	2r
.	.	2e	2g
=62	=62	=62	=62
0F	0r	0f	2.a
.	.	.	4b-
.	.	.	2cc
.	.	.	[2dd
=63	=63	=63	=63
0r	0r	2e	4dd]
.	.	.	4cc
.	.	2c	1cc
.	.	1d	.
.	.	.	2bni
=64	=64	=64	=64
2r	0r	2.c	1cc
1F	.	.	.
.	.	4B-	.
.	.	2A	1r
2E	.	[2G	.
=65	=65	=65	=65
1C	0r	2G]	0r
.	.	1c	.
1D	.	.	.
.	.	2Bni	.
=66	=66	=66	=66
1C	0r	[0c	1r
[1F	.	.	2r
.	.	.	[2a
=67	=67	=67	=67
1F]	0r	0c_	2a]
.	.	.	4g
.	.	.	4f
2r	.	.	1e
[2A	.	.	.
=68	=68	=68	=68
2A]	0r	0c]	0r
4G	.	.	.
4F	.	.	.
1E	.	.	.
=69	=69	=69	=69
1D	0r	1d	1f
1r	.	2c	2e
.	.	2A	2f
=70	=70	=70	=70
1r	0r	4B-	4g
.	.	4A	4f
.	.	4G	4e
.	.	4F	4d
2r	.	2E	2c
[2F	.	[2A	[2d
=71	=71	=71	=71
2F]	0r	2A]	4d]
.	.	.	4c
2E	.	1G	1c
1D	.	.	.
.	.	2F	2Bni
=72	=72	=72	=72
0C	0r	1G	0c
.	.	2r	.
.	.	2G	.
=73	=73	=73	=73
1F	0r	2.A	2r
.	.	.	2.c
.	.	4G	.
1r	.	2F	.
.	.	.	4d
.	.	2c	4e
.	.	.	4f
=74	=74	=74	=74
0r	0r	4B-	2g
.	.	4A	.
.	.	4G	1f
.	.	4F	.
.	.	1G	.
.	.	.	2e
=75	=75	=75	=75
2r	0r	1F	0f
2.F	.	.	.
.	.	2r	.
4G	.	.	.
4A	.	[2F	.
4B-	.	.	.
=76	=76	=76	=76
2c	0r	4F]	0r
.	.	4G	.
2.F	.	4A	.
.	.	4B-	.
.	.	2c	.
4E	.	.	.
2F	.	[2d	.
=77	=77	=77	=77
2G	0r	2d]	0r
2C	.	1c	.
1D	.	.	.
.	.	2Bni	.
=78	=78	=78	=78
0C	0r	1c	2r
.	.	.	2.e
.	.	2r	.
.	.	.	4f
.	.	[2c	4g
.	.	.	4a
=79	=79	=79	=79
0r	0r	2c]	2g
.	.	4B-	1a
.	.	4A	.
.	.	1B-	.
.	.	.	2g
=80	=80	=80	=80
2r	0r	0A	1a
2.AA	.	.	.
.	.	.	2r
4BB-	.	.	.
4C	.	.	[2a
4D	.	.	.
=81	=81	=81	=81
2C	0r	0r	2a]
1D	.	.	4g
.	.	.	4f
.	.	.	1e
2C#Xi	.	.	.
=82	=82	=82	=82
1D	0r	2r	1d
.	.	2.A	.
[1F	.	.	1r
.	.	4B-	.
.	.	4c	.
.	.	4d	.
=83	=83	=83	=83
2F]	0r	2c	0r
4E	.	1d	.
4D	.	.	.
1E	.	.	.
.	.	2c#Xi	.
=84	=84	=84	=84
0D	0r	1d	2r
.	.	.	2.d
.	.	2r	.
.	.	.	4e
.	.	[2d	4f
.	.	.	4g
=85	=85	=85	=85
1r	0r	2d]	2f
.	.	4c	1g
.	.	4B-	.
2r	.	1A	.
2D	.	.	2f#Xi
=86	=86	=86	=86
2.E	0r	2r	1g
.	.	2.G	.
4D	.	.	.
2C	.	.	1r
.	.	4A	.
2G	.	4B-	.
.	.	4c	.
=87	=87	=87	=87
4F	0r	2d	0r
4E	.	.	.
4D	.	1c	.
4C	.	.	.
1D	.	.	.
.	.	2Bni	.
=88	=88	=88	=88
1C	0r	2.c	2r
.	.	.	2.g
.	.	4d	.
1r	.	4e	.
.	.	4f	4a
.	.	2g	4b-
.	.	.	4cc
=89	=89	=89	=89
0r	0r	4f	2dd
.	.	4e	.
.	.	4d	1cc
.	.	4c	.
.	.	1d	.
.	.	.	2bni
=90	=90	=90	=90
2r	0r	1c	0cc
2.C	.	.	.
.	.	2r	.
4D	.	.	.
2E	.	[2c	.
=91	=91	=91	=91
2F	0r	4c]	0r
.	.	4d	.
1G	.	4e	.
.	.	4f	.
.	.	2g	.
2A	.	[2f	.
=92	=92	=92	=92
2B-	0r	2f]	2r
2c	.	2e	2.cc
1F	.	2f	.
.	.	.	4b-
.	.	[2F	[2a
=93	=93	=93	=93
0r	0r	4F]	4a]
.	.	4G	4g
.	.	4A	2f
.	.	4B-	.
.	.	2c	2e
.	.	[2B-	[2g
=94	=94	=94	=94
1r	0r	2B-]	4g]
.	.	.	4f
.	.	2A	1f
2r	.	2B-	.
2C	.	2c	2e
=95	=95	=95	=95
2.D	0r	[0Fl	[0fl
4C	.	.	.
2AA	.	.	.
[2BB-	.	.	.
=96	=96	=96	=96
4BB-]	0r	0F_	0f_
4C	.	.	.
4D	.	.	.
4E	.	.	.
*^	*	*	*
1FFl\	1Fl/	.	.	.
*v	*v	*	*	*
!!LO:LB:i:g=z
=97||	=97||	=97||	=97||
*>C	*>C	*>C	*>C
*clefF4	*clefGv2	*clefGv2	*clefG2
*k[b-]	*k[b-]	*k[b-]	*k[b-]
*M2/1	*M2/1	*M2/1	*M2/1
*met(C|)	*met(O)	*met(C|)	*met(C|)
*	*rscale:1/2	*	*
!!section: Osanna I
!!!OMD: Osanna I
!	!LO:N:vis=0	!	!
0F	0r	0r	0cc
=98	=98-	=98	=98
1G	0ryy	0r	1b-
1G	.	.	1b-
=99	=99-	=99	=99
1.D	0ryy	[0f	0a
2E	.	.	.
=100	=100	=100	=100
!	!LO:N:vis=0.	!	!
1F	[y0c	0f]	1a
1F	.	.	1a
=101	=101-	=101	=101
[0C	0c_yy	0e	0g
=102	=102-	=102	=102
0C]	0c]yy	1e	1g
.	.	1e	2a
.	.	.	[2g
=103	=103	=103	=103
[0G	0B-	1d	4g]
.	.	.	4f
.	.	.	4g
.	.	.	4f
.	.	2r	1d
.	.	[2g	.
=104	=104-	=104	=104
!	!LO:N:vis=0	!	!
0G]	[y0B-	4g]	2r
.	.	4f	.
.	.	4g	2.g
.	.	4f	.
.	.	1d	.
.	.	.	4a
.	.	.	[2b-
=105	=105-	=105	=105
2.GG	0B-]yy	2r	4b-]
.	.	.	4a
.	.	2.d	2g
4AA	.	.	.
2.BB-	.	.	2f
.	.	4e	.
.	.	[2f	2d
4C	.	.	.
=106	=106	=106	=106
*	*M2/1	*	*
*	*met(C)	*	*
*	*rscale:1/2	*	*
!	!LO:N:vis=0	!	!
1D	[y0A	4f]	1f
.	.	4e	.
.	.	2d	.
2AA	.	2c	2e
[2D	.	2d	[2f
=107	=107-	=107	=107
4D]	0A]yy	1A	4f]
4E	.	.	4e
2.F	.	.	2d
.	.	1f	2c
4E	.	.	.
2D	.	.	2d
=108	=108	=108	=108
2C	0A	2e	1A
2.D	.	2.f	.
.	.	.	1f
4C	.	4e	.
2D	.	2d	.
=109	=109-	=109	=109
1AA	0A	1c	2e
.	.	.	2.c
4AA	.	1r	.
4BB-	.	.	4d
4C	.	.	4e
4D	.	.	4f
=110	=110	=110	=110
*	*M2/1	*	*
*	*met(C|)	*	*
*	*rscale:1	*	*
1E	1G	0r	1g
2D	2.A	.	2f
2C	.	.	[2e
.	4G	.	.
=111	=111	=111	=111
2D	4F	0r	4e]
.	4E	.	4d
2BB-	2D	.	1d
1AA	1E	.	.
.	.	.	2c#Xi
=112	=112	=112	=112
*	*M2/1	*	*
*	*met(C)	*	*
*	*rscale:1/2	*	*
2r	1.D	0r	1d
1D	.	.	.
.	.	.	1r
2C	2E	.	.
=113	=113-	=113	=113
1D	1F	2r	0r
.	.	1d	.
1E	1G	.	.
.	.	2c#Xi	.
=114	=114	=114	=114
2.D	1.A	0d	1r
4E	.	.	.
2F	.	.	2r
2G	2G	.	[2d
=115	=115-	=115	=115
2D	2F	1r	2d]
2E	2E	.	2c
2.D	1F	2r	2d
.	.	[2d	[2f
4E	.	.	.
=116	=116	=116	=116
1F	1A	2d]	4f]
.	.	.	4g
.	.	2c	2a
1BB-	1B-	1d	2f
.	.	.	[2g
=117	=117-	=117	=117
0C	0G	1c	4g]
.	.	.	4f
.	.	.	4e
.	.	.	4d
.	.	2r	1e
.	.	2c	.
=118	=118	=118	=118
*	*M2/1	*	*
*	*met(C.)	*	*
*	*rscale:1/2	*	*
0FF	0F	2A	1f
.	.	2.c	.
.	.	.	2r
.	.	4B-	.
.	.	4A	2f
.	.	4G	.
=119	=119-	=119	=119
2r	1r	2F	2d
2F	.	2D	2.f
!	!LO:N:vis=1	!	!
2D	[y1f	2.F	.
.	.	.	4g
[2F	.	.	4a
.	.	4G	4b-
=120	=120-	=120	=120
4F]	1f]yy	4A	1cc
4G	.	4B-	.
4A	.	2.c	.
4B-	.	.	.
1c	1e	.	1g
.	.	4d	.
.	.	4e	.
.	.	4f	.
=121	=121	=121	=121
!	!LO:N:vis=1.	!	!
2r	[y0c	2g	1r
1F	.	2.a	.
.	.	.	2r
.	.	4g	.
2E	.	[2g	2g
=122	=122-	=122	=122
1A	1c]yy	2g]	1a
.	.	2f	.
!	!LO:N:vis=1.	!	!
2.G	[y1d	1g	2.b-
4A	.	.	4cc
=123	=123-	=123	=123
2B-	0d]yy	1r	2dd
2F	.	.	1cc
1G	.	2r	.
.	.	[2g	2bni
=124	=124	=124	=124
1C	[0cl	4g]	2.cc
.	.	4f	.
.	.	4e	.
.	.	4d	4b-Xi
2F	.	2c	2a
2E	.	2G	2g
=125	=125-	=125	=125
2.F	0c_	1A	2f
.	.	.	2.cc
4G	.	.	.
2A	.	1F	.
.	.	.	4b-
2F	.	.	4a
.	.	.	8gL
.	.	.	8fJ
=126	=126-	=126	=126
0Cl	0c]	0Gl	0el
*	*rscale:1	*	*
!!LO:LB:i:g=z
=127||	=127||	=127||	=127||
*>D	*>D	*>D	*>D
*clefF4	*clefGv2	*clefGv2	*clefG2
*k[b-]	*k[b-]	*k[b-]	*k[b-]
*M2/1	*M2/1	*M2/1	*M2/1
*met(C|)	*met(C|)	*met(C|)	*met(C|)
!!section: Benedictus
!!!OMD: Benedictus
0r	0r	2.F	0r
.	.	4G	.
.	.	2A	.
.	.	2B-	.
=128	=128	=128	=128
0r	0r	1c	1r
.	.	[1d	2.f
.	.	.	4g
=129	=129	=129	=129
0r	0r	1d]	2a
.	.	.	2b-
.	.	2r	1cc
.	.	[2c	.
=130	=130	=130	=130
0r	0r	2c]	1dd
.	.	2B-	.
.	.	1e-X	2r
.	.	.	[2cc
=131	=131	=131	=131
0r	0r	1d	2cc]
.	.	.	2b-
.	.	2c	2a
.	.	4B-	4g
.	.	4A	4f
=132	=132	=132	=132
0r	0r	2G	2.e
.	.	1c	.
.	.	.	4d
.	.	.	2c
.	.	2B-	[2g
=133	=133	=133	=133
0r	0r	2A	4g]
.	.	.	4f
.	.	4G	1f
.	.	4F	.
.	.	1G	.
.	.	.	2e
=134	=134	=134	=134
2r	0r	1F	0f
2.FF	.	.	.
.	.	1r	.
4GG	.	.	.
4AA	.	.	.
4BB-	.	.	.
=135	=135	=135	=135
2C	0r	1A	0r
2D	.	.	.
2C	.	1A	.
[2F	.	.	.
=136	=136	=136	=136
2F]	0r	1A	0r
4E	.	.	.
4D	.	.	.
1E	.	1G	.
=137	=137	=137	=137
2AA	0r	1.c	0r
1A	.	.	.
4G	.	4B-	.
4F	.	4A	.
=138	=138	=138	=138
2G	0r	2B-	0r
2A	.	2A	.
2D	.	2F	.
[2E	.	[2G	.
=139	=139	=139	=139
2E]	0r	2G]	0r
4D	.	1A	.
4C	.	.	.
2D	.	.	.
2E	.	2G	.
=140	=140	=140	=140
1AA	0r	2.A	1a
.	.	4B-	.
1r	.	2c	1a
.	.	2d	.
=141	=141	=141	=141
0r	0r	2G	1b-
.	.	1d	.
.	.	.	1a
.	.	2c	.
=142	=142	=142	=142
0r	0r	2B-	2g
.	.	1A	1f
.	.	4G	4e
.	.	4F	4d
=143	=143	=143	=143
2r	0r	1E	1c
2.C	.	.	.
.	.	1c	1r
4D	.	.	.
4E	.	.	.
4F	.	.	.
=144	=144	=144	=144
2.G	0r	2.B-	0r
4A	.	4A	.
2.B-	.	2G	.
.	.	[2d	.
4A	.	.	.
=145	=145	=145	=145
2.F	0r	2d]	0r
.	.	2.c	.
4G	.	.	.
4A	.	.	.
4F	.	4A	.
[2G	.	2B-	.
=146	=146	=146	=146
4G]	0r	1F	0r
4F	.	.	.
1F	.	.	.
.	.	1G	.
2E	.	.	.
=147	=147	=147	=147
1.F	0r	2.F	2r
.	.	.	1f
.	.	4G	.
.	.	2A	.
2r	.	2B-	[2g
=148	=148	=148	=148
2r	0r	1c	2g]
1F	.	.	1a
.	.	2r	.
[2G	.	[2d	[2b-
=149	=149	=149	=149
2G]	0r	2d]	2b-]
2A	.	2c	1cc
1G	.	1d	.
.	.	.	2b-
=150	=150	=150	=150
2r	0r	1c	1cc
1C	.	.	.
.	.	1r	1dd
2BB-	.	.	.
=151	=151	=151	=151
1C	0r	2r	2cc
.	.	1c	1a
1D	.	.	.
.	.	2B-	4g
.	.	.	4f
=152	=152	=152	=152
2r	0r	1c	1e
1C	.	.	.
.	.	1d	2r
2BB-	.	.	[2f
=153	=153	=153	=153
1C	0r	2r	2f]
.	.	1c	2e
1r	.	.	1d
.	.	2B-	.
=154	=154	=154	=154
2r	0r	2c	1c
1C	.	1A	.
.	.	.	1r
2BB-	.	4G	.
.	.	4F	.
=155	=155	=155	=155
2C	0r	2E	0r
2.D	.	1F	.
4C	.	.	.
[2C	.	2E	.
=156	=156	=156	=156
2C]	0r	1D	1r
2BBni	.	.	.
[1C	.	1C	2r
.	.	.	[2e
=157	=157	=157	=157
2C]	0r	1r	2e]
2D	.	.	2d
2.E	.	2.C	2.g
4F	.	4D	4f
=158	=158	=158	=158
2G	0r	2E	4e
.	.	.	4d
2.A	.	2.F	2c
.	.	.	2.f
4G	.	4G	.
4F	.	4A	.
4E	.	4B-	4g
=159	=159	=159	=159
2F	0r	2A	2a
2G	.	2G	2b-
1C	.	2.c	2g
.	.	.	[2cc
.	.	4B-	.
=160	=160	=160	=160
2.F	0r	4A	4cc]
.	.	4G	4b-
.	.	1F	4a
4E	.	.	4g
4D	.	.	1f
4C	.	.	.
[2BB-	.	[2B-	.
=161	=161	=161	=161
2BB-]	0r	4B-]	2.b-
.	.	4A	.
2.E-X	.	4G	.
.	.	4F	4a
.	.	2G	4g
4D	.	.	4f
4C	.	2c	[2g
4BB-	.	.	.
=162	=162	=162	=162
2C	0r	2A	2g]
2D	.	2F	1f
1C	.	1G	.
.	.	.	2e
=163	=163	=163	=163
1r	0r	1F	0f
[1F	.	2.A	.
.	.	4B-	.
=164	=164	=164	=164
1F]	0r	2c	0r
.	.	2.d	.
2E	.	.	.
.	.	4c	.
2C	.	[2c	.
=165	=165	=165	=165
1D	0r	2c]	1r
.	.	2Bni	.
1C	.	[1c	2.e
.	.	.	4f
=166	=166	=166	=166
1r	0r	1c]	2g
.	.	.	2.a
1F	.	1c	.
.	.	.	4g
.	.	.	4f
.	.	.	4e
=167	=167	=167	=167
1G	0r	1B-	1.d
1G	.	1B-	.
.	.	.	2e
=168	=168	=168	=168
1.D	0r	[0A	1.f
2E	.	.	4e
.	.	.	4d
=169	=169	=169	=169
1.F	0r	0A]	1c
.	.	.	4c
.	.	.	4d
4E	.	.	4e
4D	.	.	4f
=170	=170	=170	=170
2C	0r	1r	4g
.	.	.	4e
2D	.	.	2f
1AA	.	1A	2e
.	.	.	2c
=171	=171	=171	=171
0r	0r	1G	1g
.	.	2.A	2f
.	.	.	[2e
.	.	4G	.
=172	=172	=172	=172
0r	0r	2F	4e]
.	.	.	4d
.	.	2D	1d
.	.	1E	.
.	.	.	2c#Xi
=173	=173	=173	=173
*M3/1	*M3/1	*M3/1	*M3/1
*met(3)	*met(3)	*met(3)	*met(3)
0.r	0.r	1D	0d
.	.	1F	.
.	.	1G	1e
=174	=174	=174	=174
0.r	0.r	1A	1f
.	.	1B-	1.g
.	.	1c	.
.	.	.	2f
=175	=175	=175	=175
0.r	0.r	1F	0f
.	.	0G	.
.	.	.	1e
=176	=176	=176	=176
0F	0.r	1.F	0.f
.	.	2G	.
1D	.	2A	.
.	.	2B-	.
=177	=177	=177	=177
1E	0.r	1c	0.r
1F	.	1.d	.
1G	.	.	.
.	.	2c	.
=178	=178	=178	=178
1C	0.r	0c	0.r
0D	.	.	.
.	.	1Bni	.
=179	=179	=179	=179
1C	0.r	0.c	0.r
1.F	.	.	.
2G	.	.	.
=180	=180	=180	=180
0A	0.r	0.r	1c
.	.	.	1f
1B-	.	.	1g
=181	=181	=181	=181
1c	0.r	1C	1.a
2F	.	1F	.
2D	.	.	2b-
1E	.	1G	1cc
=182	=182	=182	=182
0D	0.r	1.A	0dd
.	.	2B-	.
1E	.	1c	1cc
=183	=183	=183	=183
1F	0.r	0d	1a
1G	.	.	1b-
1A	.	1c	1cc
=184	=184	=184	=184
1D	0.r	1A	1f
2G	.	1B-	1.g
2F	.	.	.
2E	.	[1c	.
2D	.	.	2f
=185	=185	=185	=185
1.C	0.r	2c]	2e
.	.	2B-	2d
.	.	2A	0c
2BB-	.	2G	.
2AA	.	[1F	.
2GG	.	.	.
=186	=186	=186	=186
1FF	0.r	1F]	0f
0C	.	0G	.
.	.	.	1e
=187	=187	=187	=187
0.FFl	0.r	0.Fl	0.fl
!!LO:LB:i:g=z
=188||	=188||	=188||	=188||
*>E	*>E	*>E	*>E
*clefF4	*clefGv2	*clefGv2	*clefG2
*k[b-]	*k[b-]	*k[b-]	*k[b-]
*M2/1	*M2/1	*M2/1	*M2/1
*met(C|)	*met(C.)	*met(C|)	*met(C|)
!!section: Osanna II
!!!OMD: Osanna II
!	!LO:TX:Z=12:t=Crescit in duplo	!	!
!	!LO:N:vis=1.	!	!
0F	0r	0c	0A
=189	=189-	=189	=189
*	*rscale:1/4	*	*
1G	0ryy	1B-	1.d
1G	.	1B-	.
.	.	.	2e
=190	=190-	=190	=190
1.D	0ryy	0A	0f
2E	.	.	.
=191	=191-	=191	=191
!	!LO:N:vis=1.	!	!
1F	[y0c	1A	1f
1F	.	1A	1f
=192	=192-	=192	=192
0C	0c_yy	1G	1e
.	.	2.A	4e
.	.	.	4d
.	.	.	4c
.	.	4G	4B-
=193	=193-	=193	=193
1r	0c]yy	2F	0A
.	.	4E	.
.	.	4D	.
1AA	.	1E	.
=194	=194	=194	=194
!	!LO:N:vis=1	!	!
2.BB-	[y0d	2.D	2r
.	.	.	1f
4C	.	4E	.
2D	.	2F	.
2GG	.	2G	2d
=195	=195-	=195	=195
0D	0d]yy	2.A	2.f
.	.	4G	4g
.	.	4F	4a
.	.	4E	4b-
.	.	2F	[2a
=196	=196-	=196	=196
1F	0c	1A	2a]
.	.	.	1f
1C	.	1G	.
.	.	.	2e
=197	=197-	=197	=197
2r	0A	2.F	1f
1D	.	.	.
.	.	4G	.
.	.	4A	1r
.	.	4B-	.
2C	.	2c	.
=198	=198-	=198	=198
1G	1B-	2d	1r
.	.	2.g	.
2D	1A	.	1f
.	.	4f	.
2F	.	[2f	.
=199	=199-	=199	=199
1C	1G	2f]	1g
.	.	2e	.
1D	1F	1f	1d
=200	=200	=200	=200
*	*M2/1	*	*
*	*met(O)	*	*
*	*rscale:1/4	*	*
0AA	0E	1c	2r
.	.	.	2.a
.	.	2r	.
.	.	.	4b-
.	.	[2A	2cc
=201	=201-	=201	=201
!	!LO:N:vis=1	!	!
0r	[y0F	4A]	2a
.	.	4B-	.
.	.	2c	2f
.	.	2A	2r
.	.	2F	[2a
=202	=202-	=202	=202
0r	0F]yy	2r	4a]
.	.	.	4b-
.	.	2.A	4cc
.	.	.	4dd
.	.	.	2cc
.	.	4B-	.
.	.	4c	2f
.	.	4d	.
=203	=203-	=203	=203
1r	0E	2c	1g
.	.	1d	.
1AA	.	.	1a
.	.	2c#Xi	.
=204	=204-	=204	=204
!	!LO:N:vis=1	!	!
2.BB-	[y0D	2d	1f
.	.	2.f	.
4C	.	.	.
2D	.	.	2d
.	.	4e	.
2BB-	.	4d	[2f
.	.	4c	.
=205	=205-	=205	=205
1F	0D]yy	2d	4f]
.	.	.	4g
.	.	1c	1a
2r	.	.	.
2F	.	2B-	4g
.	.	.	4f
=206	=206	=206	=206
!	!LO:N:vis=1	!	!
1G	[y0C	1c	1e
2E	.	2g	2r
[2G	.	2e	2g
=207	=207-	=207	=207
4G]	0C]yy	2.g	2e
4F	.	.	.
4E	.	.	2.g
4D	.	4f	.
2C	.	4e	.
.	.	4d	4f
2G	.	[2c	4e
.	.	.	4d
=208	=208-	=208	=208
2A	0F	4c]	1.c
.	.	4B-	.
1F	.	4A	.
.	.	4G	.
.	.	2A	.
4E	.	2F	2d
4D	.	.	.
=209	=209-	=209	=209
2.C	0G	1c	2.e
4D	.	.	4f
2E	.	2r	1g
2C	.	[2c	.
=210	=210-	=210	=210
!	!LO:N:vis=2.	!	!
1F	[y0A	2c]	2r
.	.	2.f	2c
2.D	.	.	2.f
.	.	4e	.
.	.	2d	.
4E	.	.	4g
=211	=211-	=211	=211
4F	1A]yy	1c	1a
4G	.	.	.
4A	.	.	.
4F	.	.	.
2G	1B-	1r	2d
2D	.	.	[2f
=212	=212	=212	=212
1F	0c	2r	2f]
.	.	2F	2a
1E	.	1G	1g
=213	=213-	=213	=213
!	!LO:N:vis=1	!	!
0D	[y0d	1A	0f
.	.	2r	.
.	.	[2D	.
=214	=214-	=214	=214
2r	0d]yy	4D]	2.d
.	.	4E	.
2.D	.	4F	.
.	.	4G	4e
.	.	1A	4f
4E	.	.	4g
4F	.	.	[2a
4G	.	.	.
=215	=215-	=215	=215
!	!LO:N:vis=2.	!	!
1A	[y0c	2.F	2a]
.	.	.	2.f
.	.	4G	.
2r	.	4A	.
.	.	4B-	4g
[2F	.	[2c	4a
.	.	.	4b-
=216	=216-	=216	=216
4F]	1c]yy	4c]	2cc
4G	.	4d	.
4A	.	1e	2g
4B-	.	.	.
2c	1A	.	1a
2F	.	2f	.
=217	=217-	=217	=217
2G	0B-	2d	1g
2E	.	2e	.
1D	.	1f	2r
.	.	.	2d
=218	=218	=218	=218
*	*M2/1	*	*
*	*met(C)	*	*
*	*rscale:1/4	*	*
2.C	0c	1e	1.g
4D	.	.	.
2E	.	1r	.
[2F	.	.	[2a
=219	=219-	=219	=219
4F]	0F	1.A	4a]
4E	.	.	4g
4D	.	.	4f
4C	.	.	4e
1D	.	.	1f
.	.	2B-	.
=220	=220-	=220	=220
!	!LO:N:vis=1	!	!
1C	[y0G	2c	1e
.	.	2G	.
2.GG	.	2.B-	2d
.	.	.	[2g
4AA	.	4c	.
=221	=221-	=221	=221
2BB-	0G]yy	2d	4g]
.	.	.	4f
2.C	.	1c	4e
.	.	.	4d
.	.	.	1e
4BB-	.	.	.
2GG	.	2B-	.
=222	=222	=222	=222
1AA	[0Fl	1c	[0fl
2.BB-	.	1d	.
4AA	.	.	.
=223	=223-	=223	=223
0FFl	0F]	0cl	0f]
*	*rscale:1	*	*
==	==	==	==
*-	*-	*-	*-
!!!RDF**kern: l=long note in original notation
!!!system-decoration: s1,s2,s3,s4
!!!RDF**kern: i = editorial accidental
!!!ENC:	Chris Gage 04-03-2014; JR 24 Octo 2020
!!!END:	2020/10/24/
!!!EED:	Jesse Rodin
!!!EEV:	2021/05/19/
!!attribution-level@Jos: 4b (almost certainly by another composer [double question mark])
!!!ONB:	Translated from MusicXML and edited on 2021/05/19/ by Craig Sapp
!!muse2ps: T^@{OPR}^u^@{ONM}{. }@{OTL}^C^@{COA}?\n@{SCT}^i2I150v85,85,85,150c130z18
